X: 21
T: High Green Mountain
T: Kao Shan Ching
O: Taiwan
M: 4/4
L: 1/8
K: C#Phr
Q: 1/4=108
%%MIDI program 71 clarinet
%%MIDI drum d2z2d2d2 81 80 80
%%MIDI drumon
Z            |C2 FE GGGF |C2 E2 C4|\
G2 BG F2 E2  |EF E2 C4   |\
GG2G G2 B2   |c2 BG F2 F2|
G2 B=c ^c2 c2|e2c2 c2G2  |\
c3G F2G2     |GB2GF2G2   |FEC2 C4 |
